images/icons/generic-computer.svg

<svg fill="none" height="24" viewBox="0 0 24 24" width="24" xmlns="http://www.w3.org/2000/svg"><path d="m3.27273 18.3636c-.6 0-1.11364-.2136-1.54091-.6409-.42727-.4272-.64091-.9409-.64091-1.5409v-11.99998c0-.6.21364-1.11364.64091-1.54091s.94091-.64091 1.54091-.64091h17.45457c.6 0 1.1136.21364 1.5409.64091s.6409.94091.6409 1.54091v11.99998c0 .6-.2136 1.1137-.6409 1.5409-.4273.4273-.9409.6409-1.5409.6409zm-2.18182 3.2728c-.309092 0-.568183-.1046-.777274-.3137s-.313636-.4682-.313636-.7772c0-.3091.104545-.5682.313636-.7773s.468182-.3137.777274-.3137h21.81819c.3091 0 .5682.1046.7773.3137s.3136.4682.3136.7773c0 .309-.1045.5681-.3136.7772s-.4682.3137-.7773.3137z" fill="#fff"/></svg>

<svg width="24" height="24" viewBox="0 0 24 24" fill="none" xmlns="http://www.w3.org/2000/svg">
<path d="M3.27273 18.3636C2.67273 18.3636 2.15909 18.15 1.73182 17.7227C1.30455 17.2955 1.09091 16.7818 1.09091 16.1818V4.18182C1.09091 3.58182 1.30455 3.06818 1.73182 2.64091C2.15909 2.21364 2.67273 2 3.27273 2H20.7273C21.3273 2 21.8409 2.21364 22.2682 2.64091C22.6955 3.06818 22.9091 3.58182 22.9091 4.18182V16.1818C22.9091 16.7818 22.6955 17.2955 22.2682 17.7227C21.8409 18.15 21.3273 18.3636 20.7273 18.3636H3.27273ZM1.09091 21.6364C0.781818 21.6364 0.522727 21.5318 0.313636 21.3227C0.104545 21.1136 0 20.8545 0 20.5455C0 20.2364 0.104545 19.9773 0.313636 19.7682C0.522727 19.5591 0.781818 19.4545 1.09091 19.4545H22.9091C23.2182 19.4545 23.4773 19.5591 23.6864 19.7682C23.8955 19.9773 24 20.2364 24 20.5455C24 20.8545 23.8955 21.1136 23.6864 21.3227C23.4773 21.5318 23.2182 21.6364 22.9091 21.6364H1.09091Z" fill="white"/>
</svg>
